svg/book_education_outline.svg

<svg xmlns="http://www.w3.org/2000/svg" viewBox="0 0 24 24"><path d="M6 20h7v2H6c-1.11 0-2-.89-2-2V4a2 2 0 0 1 2-2h12a2 2 0 0 1 2 2v8.54l-1.5-.82-.5.28V4h-5v8l-2.5-2.25L8 12V4H6zm18-3-5.5-3-5.5 3 5.5 3zm-9 2.09v2L18.5 23l3.5-1.91v-2L18.5 21z"/></svg>

<?xml version="1.0" encoding="UTF-8"?><!DOCTYPE svg PUBLIC "-//W3C//DTD SVG 1.1//EN" "http://www.w3.org/Graphics/SVG/1.1/DTD/svg11.dtd"><svg xmlns="http://www.w3.org/2000/svg" xmlns:xlink="http://www.w3.org/1999/xlink" version="1.1" id="mdi-book-education-outline" width="24" height="24" viewBox="0 0 24 24"><path d="M6 20H13V22H6C4.89 22 4 21.11 4 20V4C4 2.9 4.89 2 6 2H18C19.11 2 20 2.9 20 4V12.54L18.5 11.72L18 12V4H13V12L10.5 9.75L8 12V4H6V20M24 17L18.5 14L13 17L18.5 20L24 17M15 19.09V21.09L18.5 23L22 21.09V19.09L18.5 21L15 19.09Z" /></svg>
